src/next/cmd/ko/sc_sortdescending.svg

<svg height="16" width="16" xmlns="http://www.w3.org/2000/svg" xmlns:xlink="http://www.w3.org/1999/xlink"><filter id="a"><feGaussianBlur stdDeviation=".385"/></filter><radialGradient id="b" cx="56" cy="66" gradientTransform="matrix(.9738345 0 0 2.06756 1.465266 -68.958964)" gradientUnits="userSpaceOnUse" r="48"><stop offset="0" stop-color="#fff"/><stop offset="1" stop-color="#eee"/></radialGradient><linearGradient id="c" gradientUnits="userSpaceOnUse" x1="87.231171" x2="114.63911" y1="9.712187" y2="112"><stop offset="0" stop-color="#2c72c7"/><stop offset="1" stop-color="#00438a"/></linearGradient><linearGradient id="d" gradientUnits="userSpaceOnUse" x1="114.37838" x2="112.9539" y1="25.786964" y2="115.69691"><stop offset="0" stop-color="#bbd6ff"/><stop offset="1" stop-color="#0057ae"/></linearGradient><linearGradient id="e" gradientUnits="userSpaceOnUse" x1="124.5" x2="135.74562" y1="108.5" y2="-13.567197"><stop offset="0" stop-color="#fff"/><stop offset="1" stop-color="#fff" stop-opacity="0"/></linearGradient><linearGradient id="f" gradientTransform="matrix(1 0 0 -1 0 140)" gradientUnits="userSpaceOnUse" x1="104" x2="104" y1="120" y2="57.11084"><stop offset="0" stop-color="#d4e2f3"/><stop offset="1" stop-color="#fff" stop-opacity="0"/></linearGradient><g transform="matrix(.125 0 0 .125 -.031187 -.4375)"><path d="m8 11.5h96v112h-96z" style="opacity:.5;fill:none;stroke:#000;stroke-width:8;stroke-linecap:round;stroke-linejoin:round"/><path d="m8 11.5h96v112h-96z" fill="#fff"/><path d="m16 19.5h80v96h-80z" fill="url(#b)"/></g><g transform="matrix(.125 0 0 .125 -.468687 0)"><path d="m95.5 108-20-20h16v-64h8v64h16z" fill="none" stroke="#fff" stroke-linecap="round" stroke-linejoin="round" stroke-width="16"/><path d="m104 110-20-22h16v-64h8v64h16z" fill="none" stroke="url(#c)" stroke-linecap="round" stroke-linejoin="round" stroke-width="16"/><path d="m104 108-20-20h16v-64h8v64h16z" fill="url(#d)" fill-rule="evenodd"/><path d="m104 108-20-20h16v-64h8v64h16z" fill="none" filter="url(#a)" opacity=".898396" stroke="url(#e)"/><path d="m104 20-20 20h16v35.15625c2.72925-.692534 5.40416-1.45519 8-2.28125v-32.875h16z" fill="url(#f)" fill-rule="evenodd" transform="matrix(1 0 0 -1 0 128)"/></g><g fill="#4d82b8" transform="matrix(.125 0 0 .125 -.031187 5)"><rect height="8" rx="1.784217" ry="2.295015" width="24" x="32" y="16"/><rect height="8" rx="4.163174" ry="2.295015" width="56" x="16" y="32"/><rect height="8" rx="2.973695" ry="2.295015" width="40" x="24" y="48"/><rect height="8" rx="2.973695" ry="2.295015" width="40" x="24" y="64"/><g transform="rotate(90)"><rect height="8" rx="1.784217" ry="2.295015" width="24" x="48" y="-64"/><rect height="8" rx="1.784217" ry="2.295015" width="24" x="48" y="-32"/></g></g><g fill="#696969" transform="matrix(.125 0 0 .125 -.031187 -9)"><rect height="8" rx="4.163174" ry="2.295015" width="56" x="16" y="88"/><rect height="8" rx="1.784217" ry="2.295015" transform="rotate(90)" width="24" x="88" y="-72"/></g></svg>

<?xml version="1.0" encoding="UTF-8" standalone="no"?>
<svg
   xmlns:dc="http://purl.org/dc/elements/1.1/"
   xmlns:cc="http://creativecommons.org/ns#"
   xmlns:rdf="http://www.w3.org/1999/02/22-rdf-syntax-ns#"
   xmlns:svg="http://www.w3.org/2000/svg"
   xmlns="http://www.w3.org/2000/svg"
   xmlns:sodipodi="http://sodipodi.sourceforge.net/DTD/sodipodi-0.dtd"
   xmlns:inkscape="http://www.inkscape.org/namespaces/inkscape"
   height="16"
   width="16"
   version="1.1"
   id="svg72"
   sodipodi:docname="sc_sortdescending.svg"
   inkscape:version="0.92.4 (unknown)"
   inkscape:export-filename="/home/rizmut/Dokumen/Rizmut/Github/libreoffice-style-karasa-jaga/build/next/cmd/ko/sc_sortdescending.png"
   inkscape:export-xdpi="96"
   inkscape:export-ydpi="96">
  <metadata
     id="metadata78">
    <rdf:RDF>
      <cc:Work
         rdf:about="">
        <dc:format>image/svg+xml</dc:format>
        <dc:type
           rdf:resource="http://purl.org/dc/dcmitype/StillImage" />
        <dc:title></dc:title>
      </cc:Work>
    </rdf:RDF>
  </metadata>
  <defs
     id="defs76" />
  <sodipodi:namedview
     pagecolor="#ffffff"
     bordercolor="#666666"
     borderopacity="1"
     objecttolerance="10"
     gridtolerance="10"
     guidetolerance="10"
     inkscape:pageopacity="0"
     inkscape:pageshadow="2"
     inkscape:window-width="1366"
     inkscape:window-height="714"
     id="namedview74"
     showgrid="true"
     inkscape:zoom="14.75"
     inkscape:cx="12.998645"
     inkscape:cy="3.7673498"
     inkscape:window-x="0"
     inkscape:window-y="28"
     inkscape:window-maximized="1"
     inkscape:current-layer="g106">
    <inkscape:grid
       type="xygrid"
       id="grid80" />
  </sodipodi:namedview>
  <filter
     id="a">
    <feGaussianBlur
       stdDeviation=".385"
       id="feGaussianBlur2" />
  </filter>
  <radialGradient
     id="b"
     cx="56"
     cy="66"
     gradientTransform="matrix(0.9738345,0,0,2.06756,1.465266,-68.958964)"
     gradientUnits="userSpaceOnUse"
     r="48">
    <stop
       offset="0"
       stop-color="#fff"
       id="stop5" />
    <stop
       offset="1"
       stop-color="#eee"
       id="stop7" />
  </radialGradient>
  <linearGradient
     id="c"
     gradientUnits="userSpaceOnUse"
     x1="87.231171"
     x2="114.63911"
     y1="9.7121868"
     y2="112">
    <stop
       offset="0"
       stop-color="#2c72c7"
       id="stop10" />
    <stop
       offset="1"
       stop-color="#00438a"
       id="stop12" />
  </linearGradient>
  <linearGradient
     id="d"
     gradientUnits="userSpaceOnUse"
     x1="114.37838"
     x2="112.9539"
     y1="25.786964"
     y2="115.69691">
    <stop
       offset="0"
       stop-color="#bbd6ff"
       id="stop15" />
    <stop
       offset="1"
       stop-color="#0057ae"
       id="stop17" />
  </linearGradient>
  <linearGradient
     id="e"
     gradientUnits="userSpaceOnUse"
     x1="124.5"
     x2="135.74562"
     y1="108.5"
     y2="-13.567197">
    <stop
       offset="0"
       stop-color="#fff"
       id="stop20" />
    <stop
       offset="1"
       stop-color="#fff"
       stop-opacity="0"
       id="stop22" />
  </linearGradient>
  <linearGradient
     id="f"
     gradientTransform="matrix(1,0,0,-1,0,140)"
     gradientUnits="userSpaceOnUse"
     x1="104"
     x2="104"
     y1="120"
     y2="57.11084">
    <stop
       offset="0"
       stop-color="#d4e2f3"
       id="stop25" />
    <stop
       offset="1"
       stop-color="#fff"
       stop-opacity="0"
       id="stop27" />
  </linearGradient>
  <g
     id="g106"
     transform="matrix(0.125,0,0,0.125,-0.031187,0)">
    <g
       id="g36"
       transform="translate(0,-3.5)">
      <path
         id="path30"
         style="opacity:0.5;fill:none;stroke:#000000;stroke-width:8;stroke-linecap:round;stroke-linejoin:round"
         d="m 8,11.5 h 96 v 112 H 8 Z"
         inkscape:connector-curvature="0" />
      <path
         id="path32"
         d="m 8,11.5 h 96 v 112 H 8 Z"
         inkscape:connector-curvature="0"
         style="fill:#ffffff" />
      <path
         id="path34"
         d="m 16,19.5 h 80 v 96 H 16 Z"
         style="fill:url(#b)"
         inkscape:connector-curvature="0" />
    </g>
    <g
       id="g48"
       transform="translate(-3.5)">
      <path
         id="path38"
         d="m 95.5,108 -20,-20 h 16 V 24 h 8 v 64 h 16 z"
         inkscape:connector-curvature="0"
         style="fill:none;stroke:#ffffff;stroke-width:16;stroke-linecap:round;stroke-linejoin:round" />
      <path
         id="path40"
         d="M 104,110 84,88 h 16 V 24 h 8 v 64 h 16 z"
         style="fill:none;stroke:url(#c);stroke-width:16;stroke-linecap:round;stroke-linejoin:round"
         inkscape:connector-curvature="0" />
      <path
         id="path42"
         d="M 104,108 84,88 h 16 V 24 h 8 v 64 h 16 z"
         style="fill:url(#d);fill-rule:evenodd"
         inkscape:connector-curvature="0" />
      <path
         id="path44"
         d="M 104,108 84,88 h 16 V 24 h 8 v 64 h 16 z"
         style="opacity:0.89839603;fill:none;stroke:url(#e);filter:url(#a)"
         inkscape:connector-curvature="0" />
      <path
         id="path46"
         transform="matrix(1,0,0,-1,0,128)"
         d="M 104,20 84,40 h 16 v 35.15625 c 2.72925,-0.692534 5.40416,-1.45519 8,-2.28125 V 40 h 16 z"
         style="fill:url(#f);fill-rule:evenodd"
         inkscape:connector-curvature="0" />
    </g>
    <g
       id="g64"
       transform="translate(0,40)"
       style="fill:#4d82b8">
      <rect
         id="rect50"
         y="16"
         x="32"
         width="24"
         ry="2.2950151"
         rx="1.784217"
         height="8" />
      <rect
         id="rect52"
         y="32"
         x="16"
         width="56"
         ry="2.2950151"
         rx="4.1631742"
         height="8" />
      <rect
         id="rect54"
         y="48"
         x="24"
         width="40"
         ry="2.2950151"
         rx="2.973695"
         height="8" />
      <rect
         id="rect56"
         y="64"
         x="24"
         width="40"
         ry="2.2950151"
         rx="2.973695"
         height="8" />
      <g
         id="g62"
         transform="rotate(90)">
        <rect
           id="rect58"
           y="-64"
           x="48"
           width="24"
           ry="2.2950151"
           rx="1.784217"
           height="8" />
        <rect
           id="rect60"
           y="-32"
           x="48"
           width="24"
           ry="2.2950151"
           rx="1.784217"
           height="8" />
      </g>
    </g>
    <g
       id="g70"
       transform="translate(0,-72)"
       style="fill:#696969">
      <rect
         id="rect66"
         y="88"
         x="16"
         width="56"
         ry="2.2950151"
         rx="4.1631742"
         height="8" />
      <rect
         id="rect68"
         y="-72"
         x="88"
         width="24"
         transform="rotate(90)"
         ry="2.2950151"
         rx="1.784217"
         height="8" />
    </g>
  </g>
</svg>
